assets/icons/repeat/_.svg

<?xml version="1.0" encoding="UTF-8" standalone="no"?>
<svg
   viewBox="0 0 24 24"
   height="24"
   width="24"
   version="1.1"
   id="svg8"
   sodipodi:docname="repeat.svg"
   inkscape:version="1.2 (1:1.2.1+202207142221+cd75a1ee6d)"
   xmlns:inkscape="http://www.inkscape.org/namespaces/inkscape"
   xmlns:sodipodi="http://sodipodi.sourceforge.net/DTD/sodipodi-0.dtd"
   xmlns="http://www.w3.org/2000/svg"
   xmlns:svg="http://www.w3.org/2000/svg">
  <defs
     id="defs12" />
  <sodipodi:namedview
     id="namedview10"
     pagecolor="#ffffff"
     bordercolor="#666666"
     borderopacity="1.0"
     inkscape:pageshadow="2"
     inkscape:pageopacity="0.0"
     inkscape:pagecheckerboard="0"
     showgrid="true"
     inkscape:snap-page="true"
     inkscape:zoom="19.79899"
     inkscape:cx="3.4345187"
     inkscape:cy="10.32881"
     inkscape:window-width="1920"
     inkscape:window-height="1016"
     inkscape:window-x="0"
     inkscape:window-y="0"
     inkscape:window-maximized="1"
     inkscape:current-layer="svg8"
     inkscape:showpageshadow="2"
     inkscape:deskcolor="#d1d1d1">
    <inkscape:grid
       type="xygrid"
       id="grid911" />
  </sodipodi:namedview>
  <path
     id="path4"
     style="color:#000000;fill:#808080;stroke-width:0.8;marker:none"
     d="m 9.001953,3.4003906 v 2.5996094 h -3.501953 c -0.3749972,0 0.2779375,-0.00299 -0.044922,0 -0.9685758,0.009 -1.717822,0.07327 -2.3378906,0.4453125 -0.4133791,0.2480276 -0.7199384,0.6559104 -0.8886719,1.1621094 -0.1687329,0.5062 -0.2285156,1.1148057 -0.2285156,1.8925781 v 8 c 0,0.777772 0.059782,1.386381 0.2285156,1.892578 0.1687335,0.506202 0.4752928,0.914081 0.8886719,1.16211 0.8267582,0.496053 1.8828215,0.445312 3.3828125,0.445312 h 11 c 1.499993,0 2.556055,0.05074 3.382812,-0.445312 0.413382,-0.248029 0.719943,-0.655908 0.888672,-1.16211 0.168734,-0.506197 0.228516,-1.114806 0.228516,-1.892578 v -8 c 0,-0.7777724 -0.05978,-1.3863781 -0.228516,-1.8925781 -0.168729,-0.506199 -0.47529,-0.9140818 -0.888672,-1.1621094 -0.826756,-0.496055 -1.882819,-0.4453125 -3.382812,-0.4453125 h -1.5 v 1 h 1.5 c 1.499993,0 2.443951,0.05075 2.867188,0.3046875 0.211613,0.1269708 0.342562,0.2815954 0.455078,0.6191406 0.112515,0.3375464 0.177734,0.8539543 0.177734,1.5761719 v 8 c 0,0.722216 -0.06522,1.238625 -0.177734,1.576172 -0.112516,0.337547 -0.243464,0.492175 -0.455078,0.61914 -0.423236,0.253942 -1.367194,0.304688 -2.867188,0.304688 h -11 c -1.499991,0 -2.443953,-0.05075 -2.8671875,-0.304688 -0.2116173,-0.126965 -0.3425629,-0.281593 -0.4550781,-0.61914 -0.1125153,-0.337547 -0.1777344,-0.853956 -0.1777344,-1.576172 v -8 c 0,-0.7222176 0.065219,-1.2386255 0.1777344,-1.5761719 0.1125152,-0.3375452 0.2434608,-0.4921708 0.4550781,-0.6191406 0.4232345,-0.2539404 0.3671965,-0.3046875 1.8671875,-0.3046875 h 3.5 v 2.6503906 h 0.00195 c 0.982744,-0.4621412 1.951288,-0.9539031 2.904297,-1.4746094 0.976249,-0.5387494 1.91672,-1.0891411 2.824219,-1.6503906 -0.907499,-0.5724994 -1.84797,-1.1292193 -2.824219,-1.6679687 -0.984999,-0.5362495 -1.954298,-1.0220317 -2.904297,-1.4570313 z"
     sodipodi:nodetypes="ccscssssscssscsscssccscsssscsssssssssccccccc" />
</svg>

<svg height="24" width="24" xmlns="http://www.w3.org/2000/svg"><path style="color:#000;fill:gray;stroke-width:.8;marker:none" d="M9.002 3.4V6H5.5c-.375 0 .278-.003-.045 0-.968.009-1.718.073-2.338.445-.413.248-.72.656-.888 1.162C2.059 8.114 2 8.722 2 9.5v8c0 .778.06 1.386.229 1.893.168.506.475.914.888 1.162C3.944 21.05 5 21 6.5 21h11c1.5 0 2.556.05 3.383-.445.413-.248.72-.656.888-1.162.17-.507.229-1.115.229-1.893v-8c0-.778-.06-1.386-.229-1.893-.168-.506-.475-.914-.888-1.162C20.056 5.95 19 6 17.5 6H16v1h1.5c1.5 0 2.444.05 2.867.305.212.127.343.281.455.619.113.337.178.854.178 1.576v8c0 .722-.065 1.239-.178 1.576-.112.338-.243.492-.455.62C19.944 19.948 19 20 17.5 20h-11c-1.5 0-2.444-.05-2.867-.305-.212-.127-.343-.281-.455-.619C3.065 18.74 3 18.222 3 17.5v-8c0-.722.065-1.239.178-1.576.112-.338.243-.492.455-.62C4.056 7.052 4 7 5.5 7H9v2.65h.002a53.855 53.855 0 0 0 2.904-1.474 65.913 65.913 0 0 0 2.824-1.65 56.02 56.02 0 0 0-2.824-1.669A47.045 47.045 0 0 0 9.002 3.4z"/></svg>
